!!!SOCIAL_FUNCTION:	lightning songs
!!!PDT:	1932
!!!OTL: No_48_At_the_End_of_the_Path_in_the_Sky.krn
!!!REG: Southwest
!!!LANG: Non-Tone
!!!LING_GROUP: Yuman-Cochimi
**kern
*staff1
=1-
*clefF4
*k[f#]
*M2/4
8E\L
8E\J
4E\
=2
8E\L
8E\J
8D\
8r
=3
8E\L
8E\J
8E\L
8D\J
=4
8E\L
8E\J
8E\
8r
=5
8BB/L
8BB/J
4E\
=6
4E\
8E\L
8D\J
=7
8E\L
8E\J
8D\
8r
=8
8E\L
8E\J
8E\L
8D\J
=9
8E\L
8E\J
8E\
8r
=10
8.E\L
16F#\Jk
8E\L
16D\L
16D\JJ
=11
8E\L
8E\J
8D\
8r
=12
8E\L
8E\J
8D\
8r
=13||
*M3/4
4BB/
8.E\L
16F#\Jk
8E\
8r
=14||
*M2/4
8E\L
8E\J
8E\L
16D\L
16D\JJ
=15
8E\L
8E\J
8E\
8r
=16||
*M3/4
4BB/
8E\L
8F#\J
8E\
8r
=17||
*M2/4
8E\L
8E\J
8E\L
16D\L
16D\JJ
=18
8.E\L
16F#\Jk
8E\
8r
=19||
*M3/4
4BB/
8.E\L
16F#\Jk
8E\L
16D\L
16D\JJ
=20||
*M2/4
8E\L
8E\J
8E\L
16D\L
16D\JJ
=21
8.E\L
16F#\Jk
8E\
8r
=22
4BB/
8.E\L
16F#\Jk
=23
8E\L
16D\L
16D\JJ
8E\L
16D\L
16D\JJ
=24
4E\
8E\L
8D\J
=25
4E\
8E\L
8D\J
=26
4E\
8E\
16r
16E\
=27
4A\
8G\L
8E\J
=28
4E\
8E\
16r
16E\
=29
4A\
8G\L
8E\J
=30
4E\
8F#\L
16D\L
16D\JJ
=31
4D\
8D\
8r
=32
4E\
8E\L
16D\L
16D\JJ
=33
8.E\L
16F#\Jk
8E\
8r
=34
4BB/
8E\L
16D\L
16D\JJ
=35
4E\
8F#\L
16D\L
16D\JJ
=36
4D\
8D\
8r
=37
4E\
8E/L
16BB/L
16BB/JJ
=38
8.E\L
16F#\Jk
8E\
16r
16E\
=39
4A\
8G\L
8E\J
=40
4E\
8F#\L
16D\L
16D\JJ
=41
4D\
8D\
8r
=42
4E\
8E\L
16D\L
16D\JJ
=43
8.E\L
16F#\Jk
8E\
8r
=44
4BB/
8E\L
16D\L
16D\JJ
=45
4E\
8F#\L
16D\L
16D\JJ
=46
4D\
8D\
8r
=47
4E\
8E/L
16BB/L
16BB/JJ
=48
8.E\L
16F#\Jk
8E\
8r
==
*-
